X: 1823
T: Ray Doran's "Jig"
B: australian traditional tunes wiki
M:2/4
L:1/8
R: Step Dance
Q: 1/4=100
K:D
V:1 
"D"dc BA|D/2E/2F/2D/2 B,A,|dc BA|D/2E/2F/2D/2 "A7"E2|
"D"dc BA|D/2E/2F/2D/2 B,A,|D/2E/2F/2D/2 B/2A/2F/2D/2|"A7"ED"D"D2|]
% abcbook-tune_id 6342d53adc49f05afb6b7909


% abcbook-boost 0
% abcbook-tablature 
% abcbook-transpose 
% abcbook-lastupdated 1665324386133
% abcbook-soundfonts 
% abcbook-repeats 1
% NFF Book 2020

